X:1
T:Keep Me at the Foot of the Cross
T:Keep Me at the Foot of the Cross
T:H. R. Turbyfill
T:H. R. Turbyfill, 1894
T:Public Domain Courtesy of the Cyber Hymnal™
C:H. R. Turbyfill
Z:Public Domain
Z:Courtesy of the Cyber Hymnal™
%%score ( 1 2 ) ( 3 4 )
L:1/8
Q:1/4=112
M:4/4
K:G
V:1 treble 
V:2 treble 
V:3 bass 
V:4 bass 
V:1
 [GB]2 [GB]2 [GB]2 [DG]2 | [DA]2 [DG]2 D4 | [DG]>[DG] [DG]>[DA] [GB]2 [GA]>G | [FA]6 z2 | %4
w: 1.~Bless- èd Je- sus,|day by day,|Keep me at the foot of the|cross;|
w: 2.~I am prone to|leave Thy side,|Keep me at the foot of the|cross;|
w: 3.~When I’m tempt- ed,|be Thou near,|Keep me at the foot of the|cross;|
w: 4.~When my work on|earth is done,|Keep me at the foot of the|cross;|
 [GB]2 [GB]2 [GB]2 [DG]2 | [DA]2 [DG]2 D4 | [DG]>[DG] G>[GA] [GB]2 [FA]>[FA] | G6 z2 || %8
w: Let me from it|ne- ver stray,|Keep me at the foot of the|cross.|
w: Let me, Lord, in|Thee a- bide,|Keep me at the foot of the|cross.|
w: I can dwell in|safe- ty there,|Keep me at the foot of the|cross.|
w: May I praise Thee|on Thy throne,|Keep me at the foot of the|cross.|
"^Refrain" [Gd]4 [GB]4 | [Gd]2 [GB]2 [GB]2 G2 | [GB]>[GB] [GB]>[GB] [GB]2 [DA]>[EG] | (A4 d2) z2 | %12
w: ||||
w: Je- sus,|bless- èd Je- sus,|Keep me at the foot of the|cross; *|
w: ||||
w: ||||
 [Gd]4 [GB]4 | [Gd]2 [GB]2 [GB]2 G2 | G>G G>[GA] [GB]2 [FA]>[FA] | [DG]6 z2 |] %16
w: ||||
w: Je- sus,|bless- èd Je- sus,|Keep me at the foot of the|cross.|
w: ||||
w: ||||
V:2
 x8 | x4 D4 | x15/2 G/ | x8 | x8 | x4 D4 | x2 G3/2 x9/2 | G6 x2 || x8 | x6 G2 | x8 | F6 x2 | x8 | %13
 x6 G2 | G>G G3/2 x9/2 | x8 |] %16
V:3
 [G,D]2 [G,D]2 [G,D]2 [G,B,]2 | [G,C]2 [G,B,]2 [G,B,]4 | %2
w: ~ ~ ~ ~|~ ~ ~|
 [G,B,]>[G,B,] [G,B,]>[G,C] [G,D]2 [G,C]>[G,B,] | [D,D]6 z2 | [G,D]2 [G,D]2 [G,D]2 [G,B,]2 | %5
w: ~ ~ ~ ~ ~ ~ ~|~|~ ~ ~ ~|
 [G,C]2 [G,B,]2 [G,B,]4 | [B,,D]>[B,,D] [B,,D]>[C,E] [D,D]2 [D,C]>[D,C] | [G,B,]6 z2 || %8
w: ~ ~ ~|~ ~ ~ ~ ~ ~ ~|~|
 [G,B,]2 [G,B,][G,B,] [G,D]2 [G,D]2 | [G,B,]2 [G,D]2 [G,D]2 [G,B,]2 | %10
w: O bless- èd Je- sus,|bless- èd Je- sus|
 [G,D]>[G,D] [G,D]>[G,D] [G,D]2 [F,D]>[E,^C] | (D4 A,2) z2 | [G,B,]2 [G,B,][G,B,] [G,D]2 [G,D]2 | %13
w: ~ ~ ~ ~ ~ ~ ~|~ *|O bless- èd Je- sus|
 [G,B,]2 [G,D]2 [G,D]2 [G,B,]2 | [B,,D]>[B,,D] [B,,D]>[C,E] [D,D]2 [D,C]>[D,C] | [G,,G,B,]6 z2 |] %16
w: |||
V:4
 x8 | x8 | x8 | x8 | x8 | x8 | x8 | x8 || x8 | x8 | x8 | D,6 x2 | x8 | x8 | x8 | x8 |] %16

